X:1
T:Title
L:1/8
Q:1/4=120
M:4/4
K:C
V:1 treble nm="Church Organ, Staff"
V:1
 G2 c2 G2 c2 | c2 d2 B2 c2 | G2 A2 A2 d2 | A2 c2 B2 A2 | G2 G2 G2 G2 | ^G2 A2 e2 d2 | c2 B4 A2- | %7
w: By~W.~F.~Taylor * * *|||||||
 A2 d6 | _e2 =e2 c2 B2 | A2 A4 G2 | G2 c6 | c2 A6 | A2 f2 e2 d2 | c2 c2 B4- | B2 c4 c2 | %15
w: ||||||||
 c2 c2 f2 e2 | d2 c2 B2 e2 | d2 d4 c2 |] %18
w: |||

